img/scheme/2.svg

<svg width="27" height="28" viewBox="0 0 27 28" fill="none" xmlns="http://www.w3.org/2000/svg">
<path d="M10.125 14.4922L12.2019 16.4922L16.875 11.9922M23.6294 14.2422C23.6294 19.8341 19.0963 24.3672 13.5044 24.3672C11.2134 24.3672 3.38021 24.3672 3.38021 24.3672C3.38021 24.3672 5.1343 20.1553 4.43229 18.7431C3.75835 17.3873 3.37939 15.859 3.37939 14.2422C3.37939 8.6503 7.91251 4.11719 13.5044 4.11719C19.0963 4.11719 23.6294 8.6503 23.6294 14.2422Z" stroke="#C73509" stroke-width="2" stroke-linecap="round" stroke-linejoin="round"/>
</svg>

<svg width="27" height="28" fill="none" xmlns="http://www.w3.org/2000/svg"><path d="m10.125 14.492 2.077 2 4.673-4.5m6.754 2.25c0 5.592-4.533 10.125-10.125 10.125H3.38s1.754-4.212 1.052-5.624a10.083 10.083 0 0 1-1.053-4.5c0-5.593 4.534-10.126 10.125-10.126 5.592 0 10.125 4.533 10.125 10.125Z" stroke="#C73509" stroke-width="2" stroke-linecap="round" stroke-linejoin="round"/></svg>
